packages/client/src/assets/icons/fullscreenButton.svg

<svg width="32" height="32" viewBox="0 0 32 32" fill="none" xmlns="http://www.w3.org/2000/svg">
  <path
    d="M1 2.77661e-07C0.447716 2.77661e-07 2.77661e-07 0.447716 2.77661e-07 1L2.77661e-07 10C2.77661e-07 10.5523 0.447716 11 1 11C1.55229 11 2 10.5523 2 10V2H10C10.5523 2 11 1.55229 11 1C11 0.447716 10.5523 2.77661e-07 10 2.77661e-07L1 2.77661e-07ZM16.7071 15.2929L1.70711 0.292893L0.292893 1.70711L15.2929 16.7071L16.7071 15.2929Z"
    fill="black" />
  <path
    d="M32 1C32 0.447716 31.5523 2.77661e-07 31 2.77661e-07L22 2.77661e-07C21.4477 2.77661e-07 21 0.447716 21 1C21 1.55229 21.4477 2 22 2H30V10C30 10.5523 30.4477 11 31 11C31.5523 11 32 10.5523 32 10L32 1ZM16.7071 16.7071L31.7071 1.70711L30.2929 0.292893L15.2929 15.2929L16.7071 16.7071Z"
    fill="black" />
  <path
    d="M2.77661e-07 31C2.77661e-07 31.5523 0.447716 32 1 32L10 32C10.5523 32 11 31.5523 11 31C11 30.4477 10.5523 30 10 30H2V22C2 21.4477 1.55229 21 1 21C0.447716 21 2.77661e-07 21.4477 2.77661e-07 22L2.77661e-07 31ZM15.2929 15.2929L0.292893 30.2929L1.70711 31.7071L16.7071 16.7071L15.2929 15.2929Z"
    fill="black" />
  <path
    d="M31 32C31.5523 32 32 31.5523 32 31L32 22C32 21.4477 31.5523 21 31 21C30.4477 21 30 21.4477 30 22V30H22C21.4477 30 21 30.4477 21 31C21 31.5523 21.4477 32 22 32L31 32ZM15.2929 16.7071L30.2929 31.7071L31.7071 30.2929L16.7071 15.2929L15.2929 16.7071Z"
    fill="black" />
</svg>

<svg width="32" height="32" fill="none" xmlns="http://www.w3.org/2000/svg"><path d="M1 0a1 1 0 0 0-1 1v9a1 1 0 1 0 2 0V2h8a1 1 0 1 0 0-2H1Zm15.707 15.293-15-15L.293 1.707l15 15 1.414-1.414Z" fill="#000"/><path d="M32 1a1 1 0 0 0-1-1h-9a1 1 0 1 0 0 2h8v8a1 1 0 1 0 2 0V1ZM16.707 16.707l15-15L30.293.293l-15 15 1.414 1.414Z" fill="#000"/><path d="M0 31a1 1 0 0 0 1 1h9a1 1 0 1 0 0-2H2v-8a1 1 0 1 0-2 0v9Zm15.293-15.707-15 15 1.414 1.414 15-15-1.414-1.414Z" fill="#000"/><path d="M31 32a1 1 0 0 0 1-1v-9a1 1 0 1 0-2 0v8h-8a1 1 0 1 0 0 2h9ZM15.293 16.707l15 15 1.414-1.414-15-15-1.414 1.414Z" fill="#000"/></svg>
